!!!OTL: STETS IN TRAUERN MUSS ICH LEBEN
!!!ARE: Europa, Mitteleuropa, Deutschland; France, Elsass
!!!SCT: E0722A
!!!YEM: Copyright 1995, estate of Helmut Schaffrath.
**kern
*ICvox
*Ivox
*M3/4
*k[f#]
*G:
{8d
8f#
=1
4g
4d
8e
8f#
=2
4g
4d}
{8g
8b
=3
4.a
8g
8f#
8a
=4
4d
4r}
{8d
8d
=5
8cc
8b
8a
8g
8g
8e
=6
8e
8g
8d
8r}
{8d
8d
=7
8g
8b
4dd
8cc
8a
=8
4a
4g}
{8d
8d
=9
8cc
8b
8a
8g
8g
8e
=10
8e
8g
8d
8r}
{8d
8d
=11
8g
8b
4dd
8cc
8a
=12
4a
4g}
==
!!!AGN: Liebes - Lied, Leid, Klage, Abschied
!!!ONB: ESAC (Essen Associative Code) Database: ERK2
!!!AMT: simple triple
!!!AIN: vox
!!!EED: Helmut Schaffrath
!!!EEV: 1.0
*-
